X:306
T: MAEDL WENN DU MI WILLST HABE
N: Z0304
O: Europa, Mitteleuropa, Deutschland, Bayern; Tirol
R: Lyrisches Lied, Romanze
M: 3/4
L: 1/8
K: C
 | C3EGc | C2C2C2
c3BcA | GAGFE2
F2A2GF | E2G2FE
D2F2ED | C4z2
C3EGc | C2C2C2
c2B2dcA | GAGFE2
F2A2GF | E2G2FE
D2F2ED | C4z2

